X: 4393
M: 2/4
L: 1/8
K: D
|:\
f2f>e | edd2 | effa | agg2 |\
g2g>f | fee2 | dcBc | edd2 ::\
fcfc | f(c/d/) cc | d(B/c/) BB |
[1 cFFz :|[2 cAA"_D.C."z |] [K:=c]\
[K:G] |: "Trio"\


